public/images/mail.svg

<svg width="17px" height="14px" viewBox="0 0 17 14" version="1.1" xmlns="http://www.w3.org/2000/svg" xmlns:xlink="http://www.w3.org/1999/xlink">
    <g id="Page-1" stroke="none" stroke-width="1" fill="none" fill-rule="evenodd">
        <g id="Benediktinky_sk_kontakt" transform="translate(-909.000000, -311.000000)" fill="#FFFFFF" fill-rule="nonzero">
            <g id="mail" transform="translate(909.000000, 311.000000)">
                <path d="M14.875,3.10862447e-16 L2.125,3.10862447e-16 C0.951394907,0 1.43725172e-16,0.940202025 0,2.1 L0,11.9 C1.43725172e-16,13.059798 0.951394907,14 2.125,14 L14.875,14 C16.0486051,14 17,13.059798 17,11.9 L17,2.1 C17,0.940202025 16.0486051,0 14.875,3.10862447e-16 Z M14.6625,3.36 L8.99583333,8.26 C8.84154227,8.33859129 8.67301605,8.38617516 8.5,8.4 C8.32698395,8.38617516 8.15845773,8.33859129 8.00416667,8.26 L2.3375,3.36 C2.04409873,3.10871044 2.01238556,2.66994949 2.26666667,2.38 C2.52094777,2.09005051 2.96493206,2.05871044 3.25833333,2.31 L8.42916667,6.79 L13.6,2.31 C13.7391836,2.18556839 13.9237378,2.12268241 14.1109471,2.13589719 C14.2981564,2.14911196 14.4717924,2.23728195 14.5916667,2.38 C14.7506052,2.48866154 14.8510824,2.66270979 14.864852,2.85321633 C14.8786216,3.04372287 14.8041968,3.23011713 14.6625,3.36 Z" id="Shape"></path>
            </g>
        </g>
    </g>
</svg>

<svg width="17" height="14" xmlns="http://www.w3.org/2000/svg"><path d="M14.875 0H2.125C.951 0 0 .94 0 2.1v9.8C0 13.06.951 14 2.125 14h12.75C16.049 14 17 13.06 17 11.9V2.1C17 .94 16.049 0 14.875 0zm-.213 3.36l-5.666 4.9a1.325 1.325 0 01-.496.14 1.325 1.325 0 01-.496-.14l-5.666-4.9a.69.69 0 01-.071-.98.709.709 0 01.991-.07L8.43 6.79 13.6 2.31a.694.694 0 01.992.07.628.628 0 01.07.98z" fill="#FFF" fill-rule="nonzero"/></svg>
